X:0236
T:I wish I may die if I do.
M:6/8
L:1/8
Q:3/8=120
I: || ||
Z:Jack Campin * www.campin.me.uk * 2009
K:D
A|F2A d2f|ede d2A|F2A d2f| d4   z
A|F2A d2e|fed agf|edc B2e| A4   z ||
f|gag g2e|fgf f2d|efg Bcd| d3  c2
A|afa geg|fdf e2A|dcd ede| fef g2
e|fga efg|fga efg|fgf ede|(d3  d2)||
A|FGA EFG|FGA E2g|fgf ede| d2A F2
A|FGA EFG|FGA E2g|fgf ede|(d3  d2)|]

